X:1
T:Title
%%score { ( 1 3 ) | ( 2 4 ) }
L:1/8
M:3/4
K:C
V:1 treble nm="Grand Piano"
V:3 treble 
V:2 bass 
V:4 bass 
V:1
 z2 z2[Q:1/4=114] G2 | [Ec]2 [CEc]2 [CEc]2 | [CEc]4 EF | G2 E2 C2 | G4 G2 | A2 [GB]2 [Gc]2 | %6
 d2 c2 B2 | [Ec]4 c2 | z2 [Ge]2 [Ge]2 | d2 d2 d2 | c2 c2 c2 | d4 e2 | [Af]2 [Ge]2 d2 | c2 d2 B2 | %14
 [Ec]4 G2 | G2 G2 G2 | G4 GG | [^FA]2 [FA]2 [FA]2 | [FA]4 [FA]2 | B2 B2 c2 | d2 d2 e2 | f6- | %22
[M:2/4] f4 |[M:1/4] G2 |[M:3/4] [ce]2 [df]e [Bd]c | [Bd]2 [Bd]2 G2 | [Bd]2 [ce]d [Ac]d | %27
 [ce]4 [Ge]2 | d4 cc | [Ad]2 [Gc]2 [FB]2 | [Ec]4 G2 | G2 G2 G2 | G4 [Ge]2 | d2 d2 d2 | [Ec]6 |] %35
V:2
 z2 z2 G,2 | C2 G,2 E,2 | C,4 E,F, | G,2 E,2 C,2 | G,4 [E,C]2 | [F,CF]2 [F,D]2 [E,C]2 | %6
 [F,A,F]2 [G,E]2 [G,D]2 | [C,G,]4[K:treble] [CE]2 | [CG]2[K:bass] .[C,C]2 .[E,C]2 | %9
 [G,B,G]2 [G,B,G]2 [G,B,F]2 | [A,E]2 [A,E]2 [A,E]2 | [G,B,G]4 [CG]2 | %12
 [F,C]2 [F,C]2[K:treble] [F,A,F]2 | [G,E]2 [G,F]2[K:bass] [G,D]2 | [C,G,]4 [G,B,D]2 | %15
 [G,B,D]2 [G,B,D]2 [G,B,D]2 | [G,B,D]4 [G,B,][G,B,] | [D,D]2 [D,D]2 [D,D]2 | [D,D]4 [D,D]2 | %19
 [G,DG]2 [G,DG]2 [G,EG]2 | [G,B,G]2 [G,B,G]2 [G,CG]2 | [G,DG]6- |[M:2/4] [G,DG]4 | %23
[M:1/4][K:bass] G,2 |[M:3/4] C,2 z[K:treble] c[K:bass] z A | G,2 G,2 G,2 | G,2 z[K:treble] B z B | %27
 C,4 [C,C]2 | [G,B,G]4 [A,CE][A,CE] | [F,F]2 [G,E]2[K:bass] [G,D]2 | [C,C]4 [C,C]2 | %31
 [G,D]2 [G,D]2 [G,D]2 | [CE]4 [C,C]2 | [G,B,F]2 [G,B,F]2 [G,B,F]2 | [C,C]6 |] %35
V:3
 x6 | x6 | x6 | x6 | x6 | x6 | x6 | x6 | e2 z D, z F, | x6 | x6 | x6 | x6 | x6 | x6 | x6 | x6 | %17
 x6 | x6 | x6 | x6 | x6 |[M:2/4] x4 |[M:1/4] x2 |[M:3/4] x6 | x6 | x6 | x6 | x6 | x6 | x6 | x6 | %32
 x6 | x6 | x6 |] %35
V:4
 x6 | x6 | x6 | x6 | x6 | x6 | x6 | x4[K:treble] x2 | x2[K:bass] x4 | x6 | x6 | x6 | %12
 x4[K:treble] x2 | x4[K:bass] x2 | x6 | x6 | x6 | x6 | x6 | x6 | x6 | x6 |[M:2/4] x4 | %23
[M:1/4][K:bass] x2 |[M:3/4] z2 C,2[K:treble][K:bass] C,2 | x6 | z2 G,2[K:treble] G,2 | x6 | x6 | %29
 x4[K:bass] x2 | x6 | x6 | x6 | x6 | x6 |] %35

